!!!COM:	la Rue, Pierre de
!!!CDT:	~1452///-1518/11/20
!!!OPR:	Missa De Sancto Antonio
!!!ONM:	1
!!!OTL:	Kyrie
!!!AGN:	Mass; Kyrie
!!!SCT:	Rue1012a
!!!SCA:	Rue1012a
!!!voices:	4
!!!voices-OPR:	4
**kern	**kern	**kern	**kern
*staff4	*staff3	*staff2	*staff1
*Ivox	*Ivox	*Ivox	*Ivox
*I"Bassus	*I"Tenor	*I"Contra	*I"Discantus
*I'B	*I'T	*I'C	*I'D
*>[A,B,C]	*>[A,B,C]	*>[A,B,C]	*>[A,B,C]
*>A	*>A	*>A	*>A
*clefF4	*clefGv2	*clefGv2	*clefG2
*k[]	*k[]	*k[]	*k[]
*M3/1	*M3/1	*M3/1	*M3/1
*met(O)	*met(O)	*met(O)	*met(O)
!!section: Kyrie I
!!!OMD: Kyrie I
=1-	=1-	=1-	=1-
0E	0.r	0B	0.r
1F	.	1d	.
=2	=2	=2	=2
1E	0.r	1.e	0e
1A	.	.	.
.	.	4d\	.
.	.	4c\	.
1G	.	2d\	1g
.	.	2e\	.
=3	=3	=3	=3
1F	0.c	0A	1.a
2E\	.	.	.
[1.E	.	.	4g/
.	.	.	4f/
.	.	[1e	[1g
=4	=4	=4	=4
1E]	0B	1e]	1g]
1G	.	1d	1b
[1F	1c	2.f\	2a/
.	.	.	[2cc\
.	.	4e\	.
=5	=5	=5	=5
1F]	1A	2c\	2cc\]
.	.	2d\	4b\
.	.	.	4a/
1E	2B\	2.e\	1g
.	1c	.	.
.	.	4d\	.
2r	.	2c\	1a
2F\	2d\	2A/	.
=6	=6	=6	=6
2.E\	0e	1B	2g/
.	.	.	1b
4F\	.	.	.
2G\	.	2r	.
2A\	.	1A	2cc\
2D\	1d	.	2.dd\
2G\	.	2G/	.
.	.	.	8cc\L
.	.	.	8b\J
=7	=7	=7	=7
2F\	2d\	2A/	2a/
2E\	2.e\	2.B\	2g/
1G	.	.	2.b\
.	4f\	4c\	.
.	1g	1d	.
.	.	.	4dd\
1A	.	.	1cc
.	2f#i\	2c\	.
=8	=8	=8	=8
2.G\	0.g	1.d	2.b\
4A\	.	.	4cc\
2B\	.	.	2dd\
2.c\	.	2c\	2.ee\
.	.	1e	.
4B\	.	.	4dd\
2G\	.	.	2b\
=9	=9	=9	=9
2A\	1r	2e\	2cc\
2D\	.	2.d\	4dd\
.	.	.	4cc\
2E\	1r	.	4b\
.	.	4c\	4a/
2F\	.	4B\	1a
.	.	4A/	.
1E	1e	1B	.
.	.	.	2g#i/
=10	=10	=10	=10
1F	0c	1A	1a
2E\	.	2G/	2r
2F\	.	2A/	2cc\
1D	1d	1F	2b\
.	.	.	2a/
=11	=11	=11	=11
0C	0.e	0G	2cc\
.	.	.	4b\
.	.	.	4a/
.	.	.	2g/
.	.	.	2a/
1r	.	1r	2b\
.	.	.	[2cc\
=12	=12	=12	=12
1G	0d	1g	2cc\]
.	.	.	2b\
2F\	.	2a\	2a/
2G\	.	1g	2.b\
2.A\	[1c	.	.
.	.	.	4a/
.	.	2f\	2a/
4G\	.	.	.
=13	=13	=13	=13
2E\	1c]	2g\	2g/
2F\	.	2c\	2a/
0G	0B	2r	1d
.	.	1g	.
.	.	.	2.d/
.	.	2G/	.
.	.	.	8e/L
.	.	.	8f/J
=14	=14	=14	=14
2.E\	2r	1G	1g
.	2B\	.	.
8F\L	.	.	.
8G\J	.	.	.
2A\	2c\	1r	2.e/
2G\	2B\	.	.
.	.	.	8f/L
.	.	.	8g/J
1F	2c\	1A	1a
.	2d\	.	.
=15	=15	=15	=15
0E	1e	2.B\	1g
.	.	8c\L	.
.	.	8d\J	.
.	1B	0e	2r
.	.	.	2g/
1r	1c	.	2a/
.	.	.	[2g/
=16	=16	=16	=16
1r	1B	1d	2g/]
.	.	.	2g/
2r	1r	2r	2a/
2E\	.	2e\	2g/
2F\	1r	2d\	2a/
2E\	.	2e\	[2cc\
=17	=17	=17	=17
2F\	0.r	2c\	2cc\]
2G\	.	2g\	2b\
1A	.	4f\	2a/
.	.	4e\	.
.	.	1f	2.cc\
1E	.	.	.
.	.	.	4b\
.	.	[2e\	4a/
.	.	.	4g/
=18	=18	=18	=18
1F	1r	2e\]	1a
.	.	2d\	.
0El	0Bl	0el	0gl
!!LO:LB:i:g=z
=19||	=19||	=19||	=19||
*>B	*>B	*>B	*>B
*clefF4	*clefGv2	*clefGv2	*clefG2
*k[]	*k[]	*k[]	*k[]
*M2/1	*M2/1	*M2/1	*M2/1
*met(C|)	*met(C|)	*met(C|)	*met(C|)
!!section: Christe
!!!OMD: Christe
1G	0B	0r	1r
2G\	.	.	1g
[2E\	.	.	.
=20	=20	=20	=20
2E\]	[0c	0r	2g/
4D\	.	.	1e
4C/	.	.	.
[1C	.	.	.
.	.	.	4d/
.	.	.	4c/
=21	=21	=21	=21
1C]	0c_	0r	1c
1A	.	.	1r
=22	=22	=22	=22
2A\	0c]	0r	1a
1F	.	.	.
.	.	.	2a/
4E\	.	.	[2f/
4D\	.	.	.
=23	=23	=23	=23
0D	[0d	1r	2f/]
.	.	.	4e/
.	.	.	4d/
.	.	1d	1d
=24	=24	=24	=24
0r	0d_	2d\	1dd
.	.	1B	.
.	.	.	2dd\
.	.	4A/	[2b\
.	.	4G/	.
=25	=25	=25	=25
1r	0d]	1G	2b\]
.	.	.	4a/
.	.	.	4g/
1G	.	[1g	1g
=26	=26	=26	=26
0A	0c	2g\]	2r
.	.	4f\	1cc
.	.	4e\	.
.	.	1f	.
.	.	.	4b\
.	.	.	4a/
=27	=27	=27	=27
2.G\	1d	1g	2b\
.	.	.	2.dd\
4F\	.	.	.
2D\	2d\	2.f\	.
.	.	.	4cc\
[2F\	[2c\	.	2a/
.	.	4e\	.
=28	=28	=28	=28
4F\]	2c\]	2c\	2.cc\
4E\	.	.	.
2C/	2c\	2.g\	.
.	.	.	4b\
2.G\	4d\	.	2g/
.	4c\	4f\	.
.	[2d\	4d\	4dd\
4F\	.	4e\	4cc\
=29	=29	=29	=29
2D\	4d\]	2f\	4b\
.	4c\	.	4a/
2F\	4B\	2d\	1a
.	4A/	.	.
1E	1B	1e	.
.	.	.	2g#i/
=30	=30	=30	=30
0r	[0A	2.c\	0a
.	.	4d\	.
.	.	2e\	.
.	.	[2f\	.
=31	=31	=31	=31
0r	0A]	2f\]	1r
.	.	4e\	.
.	.	4d\	.
.	.	1e	1a
=32	=32	=32	=32
1r	1r	1A	1.cc
1A	1A	1r	.
.	.	.	2b\
=33	=33	=33	=33
1.c	[0e	0r	1a
.	.	.	1g
2B\	.	.	.
=34	=34	=34	=34
1A	0e]	0r	2a/
.	.	.	1cc
2A\	.	.	.
[2G\	.	.	[2b\
=35	=35	=35	=35
2G\]	0e	0r	2b\]
2.A\	.	.	1a
4G\	.	.	.
2E\	.	.	[2g/
=36	=36	=36	=36
2G\	0d	0r	2g/]
2D\	.	.	1f
2F\	.	.	.
2G\	.	.	4e/
.	.	.	4d/
=37	=37	=37	=37
0A	1r	1e	0c
.	[1e	2e\	.
.	.	[2c\	.
=38	=38	=38	=38
2r	1e]	4c\]	0r
.	.	4d\	.
1c	.	4e\	.
.	.	4f\	.
.	1d	2.g\	.
2B\	.	.	.
.	.	4f\	.
=39	=39	=39	=39
4c\	2e\	4e\	1r
4B\	.	4d\	.
4A\	2.g\	1d	.
4G\	.	.	.
1A	.	.	1cc
.	4f#i\	.	.
.	2f#i\	2c\	.
=40	=40	=40	=40
0G	1.g	0d	1.b
.	4f\	.	4a/
.	4e\	.	4g/
=41	=41	=41	=41
0D	1f	0d	0a
.	1f	.	.
=42	=42	=42	=42
1E	0e	1B	1g
1C	.	1c	1e
=43	=43	=43	=43
0D	0d	0A	0f
=44	=44	=44	=44
1r	0c	1r	0e
1A	.	1c	.
=45	=45	=45	=45
2G\	0r	2B\	1r
1G	.	2G/	.
.	.	1A	1cc
2F#i\	.	.	.
=46	=46	=46	=46
1G	1r	1G	1b
2r	1f	1d	1a
2D\	.	.	.
=47	=47	=47	=47
2E\	1e	2B\	1g
2C/	.	2c\	.
1D	1d	[1A	1f
=48	=48	=48	=48
1A	1c	1A]	2e/
.	.	.	1a
1E	1B	1e	.
.	.	.	2g/
=49	=49	=49	=49
1r	0A	2e\	2a/
.	.	1c	1cc
1A	.	.	.
.	.	2c\	4b\
.	.	.	4a/
=50	=50	=50	=50
0D	0f	1d	2b\
.	.	.	2a/
.	.	2d\	1dd
.	.	[2B\	.
=51	=51	=51	=51
1E	0e	2B\]	1g
.	.	2B\	.
1C	.	1c	1cc
=52	=52	=52	=52
0D	0d	1.f	2b\
.	.	.	1a
.	.	4e\	4g/
.	.	4d\	4f/
=53	=53	=53	=53
0A	0c	2e\	2e/
.	.	1A	2.a/
.	.	.	4g/
.	.	2A/	[2f/
=54	=54	=54	=54
2G\	1B	1E	2f/]
2E\	.	.	1e
1F	1A	1A	.
.	.	.	2d/
=55	=55	=55	=55
0El	0Bl	0Gl	0el
!!LO:LB:i:g=z
=56||	=56||	=56||	=56||
*>C	*>C	*>C	*>C
*clefF4	*clefGv2	*clefGv2	*clefG2
*k[]	*k[]	*k[]	*k[]
*M3/1	*M3/1	*M3/1	*M3/1
*met(O|)	*met(O|)	*met(O|)	*met(O|)
!!section: Kyrie II
!!!OMD: Kyrie II
0E	1B	0e	0g
.	2B\	.	.
.	1c	.	.
1F	.	1A	1a
.	4B\	.	.
.	4A/	.	.
=57	=57	=57	=57
0E	0G	1e	1b
.	.	2e\	2b\
.	.	1c	1cc
1F	1A	.	.
.	.	2d\	4b\
.	.	.	4a/
=58	=58	=58	=58
1E	1B	1e	2g/
.	.	.	2e/
2E\	1c	2e\	2g/
1F	.	2.c\	1a
.	1d	.	.
.	.	4A/	.
4E\	.	2B\	4g/
4D\	.	.	4f/
=59	=59	=59	=59
4C/	0e	1c	2e/
4D\	.	.	.
4E\	.	.	2cc\
4F\	.	.	.
2G\	.	1r	2b\
2A\	.	.	2.cc\
4A\	[1f	1c	.
2F\	.	.	4a/
.	.	.	[2a/
4D\	.	.	.
=60	=60	=60	=60
1D	0.f]	2.d\	2a/]
.	.	.	2dd\
.	.	4c\	.
1r	.	2A/	2cc\
.	.	2.d\	2.dd\
1D	.	.	.
.	.	4e\	4cc\
.	.	2f\	2a/
=61	=61	=61	=61
1G	0d	0g	1.b
2.G\	.	.	.
.	.	.	2g/
4F\	.	.	.
2D\	1d	2f\	2a/
[2G\	.	2g\	2b\
=62	=62	=62	=62
4G\]	1e	2.e\	2g/
4C/	.	.	.
1C	.	.	2.cc\
.	.	4f\	.
.	2e\	2g\	.
.	.	.	4b\
2.F\	1f	2.a\	2a/
.	.	.	2.dd\
4D\	.	4g\	.
2D\	2f\	4f\	.
.	.	4e\	4cc\
=63	=63	=63	=63
2.G\	0g	2d\	2b\
.	.	2G/	2.ee\
4E\	.	.	.
1E	.	2r	.
.	.	.	4dd\
.	.	2G/	4cc\
.	.	.	4b\
2.A\	1e	2.c\	1a
4G\	.	4B\	.
=64	=64	=64	=64
4F\	1f	4A/	2.dd\
4E\	.	4G/	.
1D	.	1F	.
.	.	.	4cc\
.	2f\	.	4b\
.	.	.	4a/
2E\	2.e\	2G/	2g/
1F	.	2r	1a
.	4d\	.	.
.	2d\	2A/	.
=65	=65	=65	=65
0E	2.e\	2B\	1g
.	.	2.e\	.
.	4d\	.	.
.	2B\	.	2r
.	.	4d\	.
.	2.e\	2B\	1g
1E	.	2.e\	.
.	4d\	.	.
.	4c\	.	2g/
.	4B\	4d\	.
=66	=66	=66	=66
1F	2A/	4c\	0a
.	.	4B\	.
.	2.d\	2A/	.
2.D\	.	2.d\	.
.	4c\	.	.
.	2A/	.	.
4E\	.	4c\	.
2F\	2.d\	2A/	2a/
[2G\	.	[2d\	2b\
.	4c\	.	.
=67	=67	=67	=67
2G\]	4B\	4d\]	2g/
.	4A/	4B\	.
2G\	2G/	1e	2b\
2.F\	1A	.	2cc\
.	.	2d\	2a/
4E\	.	.	.
2C/	[1G	2e\	2cc\
2G\	.	2d\	2b\
=68	=68	=68	=68
2E\	1G]	2e\	2g/
2G\	.	2d\	2b\
2F\	1d	1f	2a/
2D\	.	.	2.dd\
1A	1e	1e	.
.	.	.	4cc\
.	.	.	2cc\
=69	=69	=69	=69
2D\	1f	2.d\	2dd\
2F\	.	.	2a/
.	.	4c\	.
2G\	0e	2B\	2b\
2.A\	.	2A/	2.cc\
.	.	2.c\	.
4G\	.	.	4b\
2E\	.	.	2g/
.	.	4B\	.
=70	=70	=70	=70
2F\	1d	2A/	2a/
2G\	.	1G	2d/
0C	1.c	.	2e/
.	.	2G/	1g
.	.	1G	.
.	2B\	.	4f/
.	.	.	4e/
=71	=71	=71	=71
2r	0.B	2r	2d/
2.G\	.	2e\	2.b\
.	.	2.g\	.
4F\	.	.	4a/
1E	.	.	1g
.	.	4f\	.
.	.	4e\	.
.	.	4c\	.
2D\	.	2d\	2f/
=72	=72	=72	=72
2E\	2B\	1G	1g
2C/	1c	.	.
2E\	.	1r	2g/
2F\	2c\	.	1a
2D\	2d\	1r	.
[2G\	2B\	.	[2b\
=73	=73	=73	=73
2G\]	2d\	2.g\	2b\]
2E\	2.e\	.	2b\
.	.	4f\	.
2.A\	.	4e\	1cc
.	4d\	4d\	.
.	2e\	1c	.
4G\	.	.	.
4F\	1f	.	2cc\
4E\	.	.	.
[2D\	.	2B\	[2dd\
=74	=74	=74	=74
2D\]	2d\	2A/	4dd\]
.	.	.	4cc\
2.G\	2.e\	2G/	4b\
.	.	.	4a/
.	.	1g	2g/
4F\	4d\	.	.
4E\	4c\	.	1cc
4D\	4B\	.	.
2C/	2A/	2r	.
2E\	2G/	2g\	[2b\
=75	=75	=75	=75
2F\	2A/	2f\	4b\]
.	.	.	4a/
2A\	2c\	2.e\	1a
1E	1B	.	.
.	.	4d\	.
.	.	4c\	2g#i/
.	.	4B\	.
*^	*	*	*
[1AAl\	[1Al/	[1Al	[1c	[1al
=76	=76	=76	=76	=76
0.AA]	0.A]yy	0.A]	1c]	0.a]
.	.	.	0el	.
*v	*v	*	*	*
==	==	==	==
*-	*-	*-	*-
!!!RDF**kern: l=long note in original notation
!!!RDF**kern: i=editorial accidental
!!!ENC:	Chris Gage 01-07-2013
!!!END:	2013/07/15/
!!!EED:	Jesse Rodin
!!!EEV:	2013/07/19/
!!!ONB:	Translated from MusicXML and edited on 2013/07/19/ by Craig Sapp
!!muse2ps: T^@{OPR}^u^@{ONM}{. }@{OTL}^C^@{COM}^i2I150v85,85,85,150Q16c85
